!!!COM: Palestrina, Giovanni Perluigi da
!!!OPR: Missa O Rex gloriae
!!!OMD: Benedictus
!!!OTL: Hosanna
**kern	**kern	**kern	**kern
*Ibass	*Itenor	*Icalto	*Icant
!Bassus	!Tenor	!Altus	!Cantus
*clefF4	*clefGv2	*clefG2	*clefG2
*k[b-]	*k[b-]	*k[b-]	*k[b-]
*G:dor	*G:dor	*G:dor	*G:dor
*M4/2	*M4/2	*M4/2	*M4/2
=31	=31	=31	=31
0r	1d	1f	1dd
.	2e-	2g	2b-
.	2c	2a	2cc
=32	=32	=32	=32
0r	1.B-	2.b-	2.dd
.	.	4a	4cc
.	.	4g	4b-
.	.	4f	4a
.	2c	[2e	[2g
=33	=33	=33	=33
0r	2G	4e]	2g]
.	.	4d	.
.	2B-	1d	2d
.	2A	.	1e
.	[2a	2c#	.
=34	=34	=34	=34
2r	2a]	1d	2d
2d	2f	.	1dd
2B-	2g	2r	.
2c	[2a	2e	2cc
=35	=35	=35	=35
2.d	4a]	1f	1a
.	4g	.	.
.	4f	.	.
4c	4e	.	.
4B-	2.d	2r	1b-
4A	.	.	.
[2G	.	2g	.
.	4c	.	.
=36	=36	=36	=36
2G]	2B-	2b-	2g
2D	1d	2a	2f#
1E	.	1g	2g
.	2c#	.	[2gg
=37	=37	=37	=37
2D	1d	2b-	2gg]
2d	.	4a	4ff
.	.	4g	4ee
2d	2r	1a	2ff
2A	2a	.	[2ee
=38	=38	=38	=38
1B-	2f	1d	4ee]
.	.	.	4dd
.	2g	.	1dd
1A	2.a	1e	.
.	.	.	2cc#
.	4g	.	.
=39	=39	=39	=39
2.B-	4f	1d	2r
.	4e	.	.
.	1d	.	2dd
4A	.	.	.
2G	.	2r	2b-
4F	2A	2a	2cc
4E	.	.	.
=40	=40	=40	=40
2D	1B-	2f	2.dd
1d	.	2g	.
.	.	.	4ee
.	1A	2.a	2ff
2c#	.	.	2ee
.	.	4g	.
=41	=41	=41	=41
2d	2r	4f	1dd
.	.	4e	.
2B-	2g	2d	.
2c	2e	2e	2g
2A	2f	2c	2a
=42	=42	=42	=42
2G	2.g	2d	2b-
2.c	.	2e	2g
.	4f	.	.
.	4e	2g	1cc
4B-	4d	.	.
4A	[2c	[2a	.
4G	.	.	.
=43	=43	=43	=43
2F	2c]	2a]	1cc
2E	2G	1g	.
1D	1A	.	1dd
.	.	2f#	.
=44	=44	=44	=44
0G	0G	0g	0b
==	==	==	==
*-	*-	*-	*-
!!!CDT: 1525/^1526/-1594/2/2
!!!OCY: Italia
!!!AGN: Mass (Parody)
!!!AST: renaissance, vocal
!!!ASW: Motet 1563 (Palestrina)
!!!PWK: Masses, Book 12
!!!RNB: Cadence finals: D
!!!YOR: Le Opere Complete, v. 29, p. 30
!!!YOO: Rome, Italy: Fratelli Scalera
!!!END: 1992//
!!!EED: John Miller
!!!YEC: Copyright 2000, John Miller
!!!YEN: United States of America
!!!YEM: Rights to all derivative electronic formats reserved.
!!!YEM: Refer to licensing agreement for further details.
!!!YEM: This file must be accompanied by the licensing agreement.
!!!YEM: A copy of the licensing agreement may be found at http://www.music-cog.ohio-state.edu/HumdrumDatabases/Palestrina/license.txt
!!!EMD: converted to Humdrum by Bret Aarden
